symbols/web/developer_mode/materialsymbolsoutlined/developer_mode_gradN25fill1_24px.svg

<svg xmlns="http://www.w3.org/2000/svg" height="24" width="24"><path d="m15.35 16.45-1.325-1.35 3.1-3.1-3.1-3.1 1.325-1.35L19.8 12Zm-6.7 0L4.2 12l4.45-4.45L9.975 8.9l-3.1 3.1 3.1 3.1ZM7.075 7.075H5.2v-3.95q0-.775.55-1.325.55-.55 1.325-.55h9.85q.775 0 1.325.55.55.55.55 1.325v3.95h-1.875V6.05h-9.85ZM5.2 16.925h1.875v1.025h9.85v-1.025H18.8v3.95q0 .775-.55 1.325-.55.55-1.325.55h-9.85q-.775 0-1.325-.55-.55-.55-.55-1.325Z"/></svg>

<svg xmlns="http://www.w3.org/2000/svg" height="24" width="24"><path d="M15.35 16.45 14.025 15.1 17.125 12 14.025 8.9 15.35 7.55 19.8 12ZM8.65 16.45 4.2 12 8.65 7.55 9.975 8.9 6.875 12 9.975 15.1ZM7.075 7.075H5.2V3.125Q5.2 2.35 5.75 1.8Q6.3 1.25 7.075 1.25H16.925Q17.7 1.25 18.25 1.8Q18.8 2.35 18.8 3.125V7.075H16.925V6.05H7.075ZM5.2 16.925H7.075V17.95H16.925V16.925H18.8V20.875Q18.8 21.65 18.25 22.2Q17.7 22.75 16.925 22.75H7.075Q6.3 22.75 5.75 22.2Q5.2 21.65 5.2 20.875Z"/></svg>
